src/main/resources/icons/TasksCoreIcons/icons/assembla_dark.svg

<svg xmlns="http://www.w3.org/2000/svg" width="16" height="16" viewBox="0 0 16 16">
  <g fill="none" fill-rule="evenodd" transform="translate(1)">
    <path fill="#9AA7B0" fill-opacity=".8" d="M8.28723247,1.28627516 L12.2872325,3.18638737 C13.333354,3.68332445 14,4.73803814 14,5.89619042 L14,10.1075079 C14,11.2637499 13.335527,12.3170801 12.292007,12.8150377 L8.29200702,14.723799 C7.47480643,15.1137592 6.52519357,15.1137592 5.70799298,14.723799 L1.70799298,12.8150377 C0.664473013,12.3170801 -7.1356764e-14,11.2637499 -7.14983628e-14,10.1075079 L-7.32747196e-14,5.89619042 C-7.29022294e-14,4.73803814 0.666645999,3.68332445 1.71276753,3.18638737 L5.71276753,1.28627516 C6.52730735,0.899345893 7.47269265,0.899345893 8.28723247,1.28627516 Z"/>
    <rect width="1" height="10" x="8.618" y="2.531" fill="#FFF" fill-rule="nonzero" rx=".5" transform="rotate(-27 9.118 7.531)"/>
    <rect width="1" height="10" x="4.518" y="2.508" fill="#FFF" fill-rule="nonzero" rx=".5" transform="scale(-1 1) rotate(-27 0 28.407)"/>
    <rect width="1" height="7" x="6.365" y="5.338" fill="#FFF" fill-rule="nonzero" rx=".5" transform="scale(-1 1) rotate(-27 0 37.435)"/>
  </g>
</svg>

<svg xmlns="http://www.w3.org/2000/svg" width="16" height="16" viewBox="0 0 16 16"><rect id="frame" width="16" height="16" fill="none"/><g fill="none" fill-rule="evenodd" transform="translate(1)"><path fill="#9AA7B0" fill-opacity=".8" d="M8.287 1.286l4 1.9A3 3 0 0 1 14 5.896v4.212a3 3 0 0 1-1.708 2.707l-4 1.909a3 3 0 0 1-2.584 0l-4-1.909A3 3 0 0 1 0 10.108V5.896a3 3 0 0 1 1.713-2.71l4-1.9a3 3 0 0 1 2.574 0z"/><rect width="1" height="10" x="8.618" y="2.531" fill="#FFF" fill-rule="nonzero" rx=".5" transform="rotate(-27 9.118 7.531)"/><rect width="1" height="10" x="4.518" y="2.508" fill="#FFF" fill-rule="nonzero" rx=".5" transform="scale(-1 1) rotate(-27 0 28.407)"/><rect width="1" height="7" x="6.365" y="5.338" fill="#FFF" fill-rule="nonzero" rx=".5" transform="scale(-1 1) rotate(-27 0 37.435)"/></g></svg>
